X:1436
T:O Freude \"uber Freude
C:anon.
O:Germany
A:Schlesien
Z:Transcribed by Frank Nordberg - http://www.musicaviva.com
F:http://abc.musicaviva.com/tunes/germany/o-freude-uber-freude.abc
M:C
L:1/4
K:D
A,|DFA(B/c/)|d2AA|BAGF|E2 z:|D|
w:O Freu-de \"u-ber_ Freu-de, ihr Nach-barn kommt und h\"ort, Es
w:was mir dort auf der_ Hei-de f\"ur Wun-der-ding pas-siert.
FFAA|G2FD|FFG(F/G/)|A2 z A,|
w:kam ein wei-\sser En-gel bei ho-her Mit-ter--nacht, der
DFA(B/c/)|d2AG|FDEC|D2 z|]
w:sang mir ein Ge--s\"an-gel, da\ss mir das Her-ze lacht.
W:
W:O Freude \"uber Freude,
W:ihr Nachbarn kommt und h\"ort,
W:was mir dort auf der Heide
W:f\"ur Wunderding passiert.
W:Es kam ein wei\sser Engel
W:bei hoher Mitternacht, der
W:sang mir ein Ges\"angel,
W:da\ss mir das Herze lacht.
W:
W:
W:  From Musica Viva - http://www.musicaviva.com
W:  the Internet center for free sheet music downloads.
